svg/building/greatwall_line.svg

<?xml version="1.0" encoding="UTF-8"?>
<svg width="24px" height="24px" viewBox="0 0 24 24" version="1.1" xmlns="http://www.w3.org/2000/svg" xmlns:xlink="http://www.w3.org/1999/xlink">
    <title>greatwall_line</title>
    <g id="Icon" stroke="none" stroke-width="1" fill="none" fill-rule="evenodd">
        <g id="Building" transform="translate(-672.000000, 0.000000)">
            <g id="greatwall_line" transform="translate(672.000000, 0.000000)">
                <path d="M24,0 L24,24 L0,24 L0,0 L24,0 Z M12.5935,23.2578 L12.5819,23.2595 L12.5109,23.295 L12.4919,23.2987 L12.4767,23.295 L12.4057,23.2595 C12.3958,23.2564 12.387,23.259 12.3821,23.2649 L12.378,23.2758 L12.3609,23.7031 L12.3659,23.7235 L12.3769,23.7357 L12.4805,23.8097 L12.4953,23.8136 L12.5071,23.8097 L12.6107,23.7357 L12.6233,23.7197 L12.6267,23.7031 L12.6096,23.2758 C12.6076,23.2657 12.601,23.2593 12.5935,23.2578 Z M12.8584,23.1453 L12.8445,23.1473 L12.6598,23.2397 L12.6499,23.2499 L12.6472,23.2611 L12.6651,23.6906 L12.6699,23.7034 L12.6784,23.7105 L12.8793,23.8032 C12.8914,23.8069 12.9022,23.803 12.9078,23.7952 L12.9118,23.7812 L12.8777,23.1665 C12.8753,23.1546 12.8674,23.147 12.8584,23.1453 Z M12.143,23.1473 C12.1332,23.1424 12.1222,23.1453 12.1156,23.1526 L12.1099,23.1665 L12.0758,23.7812 C12.0751,23.7927 12.0828,23.8019 12.0926,23.8046 L12.1083,23.8032 L12.3092,23.7105 L12.3186,23.7024 L12.3225,23.6906 L12.3404,23.2611 L12.3372,23.2485 L12.3278,23.2397 L12.143,23.1473 Z" id="MingCute" fill-rule="nonzero"></path>
                <path d="M6.5,3 C7.27969882,3 7.920449,3.59488554 7.99313345,4.35553954 L8,4.5 L8,6 L9,6 L9,4.5 C9,3.72030118 9.59488554,3.079551 10.3555395,3.00686655 L10.5,3 L13.5,3 C14.2796706,3 14.9204457,3.59488554 14.9931332,4.35553954 L15,4.5 L15,6 L16,6 L16,4.5 C16,3.72030118 16.5949121,3.079551 17.3555442,3.00686655 L17.5,3 L20.5,3 C21.2796706,3 21.9204457,3.59488554 21.9931332,4.35553954 L22,4.5 L22,19.5 C22,20.2796706 21.4050879,20.9204457 20.6444558,20.9931332 L20.5,21 L3.5,21 C2.72030118,21 2.079551,20.4050879 2.00686655,19.6444558 L2,19.5 L2,4.5 C2,3.72030118 2.59488554,3.079551 3.35553954,3.00686655 L3.5,3 L6.5,3 Z M20,16 L17,16 L17,19 L20,19 L20,16 Z M15,16 L9,16 L9,19 L15,19 L15,16 Z M7,16 L4,16 L4,19 L7,19 L7,16 Z M20,12 L13,12 L13,14 L20,14 L20,12 Z M11,12 L4,12 L4,14 L11,14 L11,12 Z M6,5 L4,5 L4,10 L20,10 L20,5 L18,5 L18,6.5 C18,7.32843 17.3284,8 16.5,8 L14.5,8 C13.6716,8 13,7.32843 13,6.5 L13,5 L11,5 L11,6.5 C11,7.32843 10.3284,8 9.5,8 L7.5,8 C6.67157,8 6,7.32843 6,6.5 L6,5 Z" id="形状" fill="#09244B"></path>
            </g>
        </g>
    </g>
</svg>

<svg xmlns="http://www.w3.org/2000/svg" width="24" height="24"><g fill="none" fill-rule="evenodd"><path d="M24 0v24H0V0h24ZM12.594 23.258l-.012.002-.071.035-.02.004-.014-.004-.071-.036c-.01-.003-.019 0-.024.006l-.004.01-.017.428.005.02.01.013.104.074.015.004.012-.004.104-.074.012-.016.004-.017-.017-.427c-.002-.01-.009-.017-.016-.018Zm.264-.113-.014.002-.184.093-.01.01-.003.011.018.43.005.012.008.008.201.092c.012.004.023 0 .029-.008l.004-.014-.034-.614c-.003-.012-.01-.02-.02-.022Zm-.715.002a.023.023 0 0 0-.027.006l-.006.014-.034.614c0 .012.007.02.017.024l.015-.002.201-.093.01-.008.003-.011.018-.43-.003-.012-.01-.01-.184-.092Z"/><path fill="#09244B" d="M6.5 3a1.5 1.5 0 0 1 1.493 1.356L8 4.5V6h1V4.5a1.5 1.5 0 0 1 1.356-1.493L10.5 3h3a1.5 1.5 0 0 1 1.493 1.356L15 4.5V6h1V4.5a1.5 1.5 0 0 1 1.356-1.493L17.5 3h3a1.5 1.5 0 0 1 1.493 1.356L22 4.5v15a1.5 1.5 0 0 1-1.356 1.493L20.5 21h-17a1.5 1.5 0 0 1-1.493-1.356L2 19.5v-15a1.5 1.5 0 0 1 1.356-1.493L3.5 3h3ZM20 16h-3v3h3v-3Zm-5 0H9v3h6v-3Zm-8 0H4v3h3v-3Zm13-4h-7v2h7v-2Zm-9 0H4v2h7v-2ZM6 5H4v5h16V5h-2v1.5A1.5 1.5 0 0 1 16.5 8h-2A1.5 1.5 0 0 1 13 6.5V5h-2v1.5A1.5 1.5 0 0 1 9.5 8h-2A1.5 1.5 0 0 1 6 6.5V5Z"/></g></svg>
